X: 891
T: Alexander's
R: hornpipe
M: 4/4
K: Dmajor
(3gfe|dAFA DFAd|fdcd Acef|g2 ge fdcd|(3efe (3dcB A2 (3gfe|
dAFA DFAd|fdcd Acdf|g2 ge fdcd|(3efe dcd2:|
AG|FAdA FAdA|GBdB GBdB|Acec Acec|dfaf (3gfe (3dAG|
FAdA FAdA|GBdB GBdB|Acef gecd|(3efe dcd2:|

